images/phone.svg

<svg width="18" height="18" viewBox="0 0 18 18" fill="none" xmlns="http://www.w3.org/2000/svg">
<path d="M15.1384 11.2606C14.4878 10.6183 13.6757 10.6183 13.0293 11.2606C12.5362 11.7495 12.0431 12.2385 11.5583 12.7357C11.4257 12.8724 11.3139 12.9014 11.1523 12.8103C10.8332 12.6363 10.4934 12.4954 10.1868 12.3048C8.7573 11.4056 7.55982 10.2496 6.49907 8.9485C5.97284 8.30211 5.50462 7.61014 5.17728 6.83115C5.11099 6.6737 5.12342 6.57011 5.25187 6.44166C5.74495 5.96515 6.2256 5.47621 6.71039 4.98727C7.38579 4.30773 7.38579 3.51217 6.70625 2.82849C6.3209 2.43899 5.93555 2.05779 5.5502 1.6683C5.15242 1.27052 4.75879 0.868591 4.35686 0.474955C3.70633 -0.159007 2.89419 -0.159007 2.2478 0.479098C1.75057 0.968037 1.27407 1.4694 0.768555 1.95006C0.300335 2.39341 0.0641529 2.93622 0.0144304 3.57018C-0.0642969 4.60192 0.188459 5.57566 0.544804 6.52453C1.27407 8.48857 2.38454 10.233 3.73119 11.8324C5.5502 13.9953 7.72142 15.7066 10.2614 16.9414C11.405 17.4966 12.5901 17.9234 13.8787 17.9939C14.7654 18.0436 15.5361 17.8198 16.1535 17.1279C16.5762 16.6555 17.0527 16.2246 17.5002 15.7729C18.1631 15.1017 18.1673 14.2895 17.5085 13.6266C16.7212 12.8351 15.9298 12.0479 15.1384 11.2606Z" fill="#3B322D"/>
</svg>

<svg width="18" height="18" fill="none" xmlns="http://www.w3.org/2000/svg"><path d="M15.138 11.26c-.65-.642-1.462-.642-2.109 0-.493.49-.986.979-1.47 1.476-.133.136-.245.165-.407.074-.319-.174-.659-.315-.965-.505-1.43-.9-2.627-2.055-3.688-3.357-.526-.646-.994-1.338-1.322-2.117-.066-.157-.054-.26.075-.39.493-.476.974-.965 1.458-1.454.676-.68.676-1.475-.004-2.159-.385-.389-.77-.77-1.156-1.16-.398-.397-.791-.8-1.193-1.193-.65-.634-1.463-.634-2.11.004-.496.489-.973.99-1.478 1.471-.469.443-.705.986-.755 1.62-.078 1.032.174 2.006.53 2.955.73 1.964 1.84 3.708 3.187 5.307a19.719 19.719 0 006.53 5.11c1.144.555 2.33.981 3.618 1.052.886.05 1.657-.174 2.275-.866.422-.473.899-.903 1.346-1.355.663-.671.667-1.483.009-2.146-.788-.792-1.58-1.58-2.37-2.366z" fill="#3B322D"/></svg>
